X: 8
T: Tell Her I Am
Z: ceili
S: https://thesession.org/tunes/161#setting50493
R: jig
M: 6/8
L: 1/8
K: Gmaj
d|:"G"edB G/G/GG|"D"DED "G"G/G/GG|"D"DED "C"c/c/cA|"G"BGE EBd|
"G"edB G/G/GG|"D"DED "G"G/G/GG|"A"AGF "G"GBA|GFE "D"D/D/DD:|
|:"G"BAB dBG|BAB dBG|"A"A/A/AA AGA|BAG E/E/ED|
"G"BAB deg|"A"age "D"d/d/dB|BAG "G"GBA|GFE "D"D/D/DD:|
|:"G"efg ege|dBG GBd|"A"e/e/ea aga|"G"bge e/e/ed|
[1 "G"efg ege|dBG GBd|"A"agf "G"gba|gfe "D"d/d/dd:|
[2 "G"def "A"gba|"G"gfe "D"d/d/dB|"G"BAG GBA|GFE "D"D/D/DD||

%-------------------- TUNE SEPARATOR --------------------%

